X:1
T:Title
%%score { 1 | 2 }
L:1/8
Q:1/4=112
M:4/4
K:A
V:1 treble nm="Grand Piano"
V:2 bass 
V:1
 [Ec]2 [Ec]2 [CA]2 [CE]2 | [DF]2 [CE]2 [CE]4 | A2 G2 G4 | B2 A2 A4 | [Ec]2 [Ec]2 [CA]2 [CE]2 | %5
w: George~Douglas~Repp * * *|||||
 [DF]2 [CE]2 [CE]4 | G2 G2 E2 B2 | [CA]6 z2 | [FA]2 [FA]2 [Fd]2 [DF]2 | [CE]2 [CE]2 [Ec]4 | %10
w: |||||
 c2 B2 B4 | [DB]2 [CA]2 [CA]4 | [DF]2 [DF]2 [Fd]2 [DF]2 | [CE]2 [CE]2 [Ec]4 | c2 B2 E2 B2 | %15
w: |||||
 [CA]6 z2 |] %16
w: |
V:2
 [A,,A,]2 [A,,A,]2 [A,,A,]2 [A,,A,]2 | [A,,A,]2 [A,,A,]2 [A,,A,]4 | [E,CE]2 [E,B,E]2 [E,B,E]4 | %3
 [A,DE]2 [A,CE]2 [A,CE]4 | [A,,A,]2 [A,,A,]2 [A,,A,]2 [A,,A,]2 | [A,,A,]2 [A,,A,]2 [A,,A,]4 | %6
 [E,B,D]2 [E,B,D]2 [E,G,D]2 [E,G,D]2 | [A,,E,]6 z2 | [D,D]2 [D,D]2 [D,D]2 [D,A,]2 | %9
 [A,,A,]2 [A,,A,]2 [A,,A,]4 | [E,A,E]2 [E,G,E]2 [E,G,E]4 | [A,,A,]2 [A,,A,]2 [A,,A,]4 | %12
 [D,A,]2 [D,A,]2 [D,A,]2 [D,A,]2 | [A,,A,]2 [A,,A,]2 [A,,A,]4 | %14
 [E,A,E]2 [E,G,D]2 [E,G,D]2 [E,G,D]2 | [A,,E,]6 z2 |] %16

